icons/symfony.svg

<svg viewBox="0 0 14.56 15.31" xmlns="http://www.w3.org/2000/svg"><path d="m12.51 0a4.06 4.06 0 0 0 -2.9 1.55 9.75 9.75 0 0 0 -1.77 3.27 6.34 6.34 0 0 0 -2.4-1.67 2.93 2.93 0 0 0 -2.65.48 2.37 2.37 0 0 0 -.79 1.19 2.67 2.67 0 0 0 .68 2.45l.67.73a1.06 1.06 0 0 1 .32 1.07 1.28 1.28 0 0 1 -1.67.77c-.33-.1-.8-.35-.69-.69a2.91 2.91 0 0 1 .2-.37 1.82 1.82 0 0 0 .09-.23.92.92 0 0 0 -.49-1.15.77.77 0 0 0 -1.06.54c-.2.64.11 1.8 1.75 2.31 1.92.59 3.55-.46 3.78-1.82a2.72 2.72 0 0 0 -.95-2.31l-.58-.64a1.05 1.05 0 0 1 -.05-1.4 1.24 1.24 0 0 1 1.4-.36c1 .28 1.5 1 2.27 1.58-.32 1-.53 2.1-.72 3l-.1.7c-.55 2.9-1 4.49-2.07 5.4a1.78 1.78 0 0 1 -1 .41.29.29 0 0 1 -.33-.24c0-.17.14-.25.24-.33a.61.61 0 0 0 .31-.59 1 1 0 0 0 -1-.92 1.19 1.19 0 0 0 -1.11 1.21c0 .8.77 1.4 1.9 1.36a4.54 4.54 0 0 0 3.21-1.83 11.46 11.46 0 0 0 2.34-5.38l.36-2h.65c1.92 0 2.88-1 2.89-1.68a.78.78 0 0 0 -.7-.86.8.8 0 0 0 -.76.62c-.09.4.61.77.06 1.12a3 3 0 0 1 -2.06.28l.18-1c.36-1.86.81-4.16 2.51-4.21.12 0 .58 0 .59.31 0 .1 0 .13-.14.35a.81.81 0 0 0 -.16.51.8.8 0 0 0 .9.77 1 1 0 0 0 .89-1.06c0-.82-.9-1.35-2-1.31z" fill="#8fa957"/></svg>

<svg xmlns="http://www.w3.org/2000/svg" viewBox="0 0 14.56 15.31"><path d="M12.51,0a4.06,4.06,0,0,0-2.9,1.55A9.75,9.75,0,0,0,7.84,4.82,6.34,6.34,0,0,0,5.44,3.15a2.93,2.93,0,0,0-2.65.48A2.37,2.37,0,0,0,2,4.82a2.67,2.67,0,0,0,.68,2.45L3.35,8a1.06,1.06,0,0,1,.32,1.07A1.28,1.28,0,0,1,2,9.84c-.33-.1-.8-.35-.69-.69a2.91,2.91,0,0,1,.2-.37,1.82,1.82,0,0,0,.09-.23A.92.92,0,0,0,1.11,7.4a.77.77,0,0,0-1.06.54c-.2.64.11,1.8,1.75,2.31,1.92.59,3.55-.46,3.78-1.82a2.72,2.72,0,0,0-.95-2.31l-.58-.64A1.05,1.05,0,0,1,4,4.08,1.24,1.24,0,0,1,5.4,3.72c1,.28,1.5,1,2.27,1.58-.32,1-.53,2.1-.72,3L6.85,9c-.55,2.9-1,4.49-2.07,5.4a1.78,1.78,0,0,1-1,.41.29.29,0,0,1-.33-.24c0-.17.14-.25.24-.33A.61.61,0,0,0,4,13.65a1,1,0,0,0-1-.92,1.19,1.19,0,0,0-1.11,1.21c0,.8.77,1.4,1.9,1.36A4.54,4.54,0,0,0,7,13.47,11.46,11.46,0,0,0,9.34,8.09l.36-2c.2,0,.42,0,.65,0,1.92,0,2.88-1,2.89-1.68a.78.78,0,0,0-.7-.86.8.8,0,0,0-.76.62c-.09.4.61.77.06,1.12a3,3,0,0,1-2.06.28l.18-1c.36-1.86.81-4.16,2.51-4.21.12,0,.58,0,.59.31,0,.1,0,.13-.14.35a.81.81,0,0,0-.16.51.8.8,0,0,0,.9.77,1,1,0,0,0,.89-1.06c0-.82-.9-1.35-2-1.31Z" style="fill:#8fa957"/></svg>
